public/signet.svg

<svg height="721.959" viewBox="0 0 892.312 721.959" width="892.312" xmlns="http://www.w3.org/2000/svg" xmlns:xlink="http://www.w3.org/1999/xlink"><clipPath id="a"><path d="m0 0h892.312v721.959h-892.312z"/></clipPath><g clip-path="url(#a)"><g clip-path="url(#a)"><g clip-path="url(#a)" fill="none" opacity=".06" stroke="#f2f2f2" stroke-width="2"><path d="m690.268 1h-205.918l195.494 293.206-195.494 293.203-276.566-414.854h-205.915l363.275 544.916h205.912l-86.706-130.062h205.918l178.643-267.909 16.846-25.311z" transform="translate(3.259 1.745)"/><path d="m353.462 1.009h-276.547v171.511h162.185z" transform="translate(134.143 1.76)"/></g></g></g></svg>

<svg id="sygnet_w_tle" data-name="sygnet w tle" xmlns="http://www.w3.org/2000/svg" xmlns:xlink="http://www.w3.org/1999/xlink" width="892.312" height="721.959" viewBox="0 0 892.312 721.959">
  <defs>
    <clipPath id="clip-path">
      <rect id="Rectangle_26" data-name="Rectangle 26" width="892.312" height="721.959" fill="none"/>
    </clipPath>
  </defs>
  <g id="Group_22" data-name="Group 22" clip-path="url(#clip-path)">
    <g id="Group_21" data-name="Group 21">
      <g id="Group_20" data-name="Group 20" clip-path="url(#clip-path)">
        <g id="Group_19" data-name="Group 19" opacity="0.06">
          <g id="Group_18" data-name="Group 18">
            <g id="Group_17" data-name="Group 17" clip-path="url(#clip-path)">
              <path id="Path_11" data-name="Path 11" d="M690.268,1H484.35L679.844,294.206,484.35,587.409,207.784,172.555H1.869L365.144,717.471H571.056L484.35,587.409H690.268L868.911,319.5l16.846-25.311Z" transform="translate(3.259 1.745)" fill="none" stroke="#f2f2f2" stroke-width="2"/>
              <path id="Path_12" data-name="Path 12" d="M353.462,1.009H76.915V172.52H239.1Z" transform="translate(134.143 1.76)" fill="none" stroke="#f2f2f2" stroke-width="2"/>
            </g>
          </g>
        </g>
      </g>
    </g>
  </g>
</svg>
